X: 44
M:C|
L:1/8
K:G
uD|G2BG c2eg|dBAG FAFD|G2BG c2eg|dBAB G2D2|
d|gagf e2e2|eaag fdef|gagf e2e2|dgfd g2 z d|
gagf e2e2|eaag fdef|gagf edef|gedB G2z:|


